projects/plugins/jetpack/images/cloud-checkmark.svg

<svg fill="none" height="105" viewBox="0 0 154 105" width="154" xmlns="http://www.w3.org/2000/svg"><path d="m124.162 39.5318c-4.363-22.5803-23.805-39.5318-47.162-39.5318-18.5442 0-34.65 10.7338-42.6708 26.4418-19.3142 2.0944-34.3292 18.7841-34.3292 39.0082 0 21.6639 17.2608 39.27 38.5 39.27h83.417c17.71 0 32.083-14.6608 32.083-32.725 0-17.2788-13.154-31.2851-29.838-32.4632z" fill="#069e08"/><path d="m71.3548 76.9998-22.0755-21.1651 5.5748-5.2915 16.5562 15.8743 27.7903-26.3777 5.5184 5.2914z" fill="#fff"/></svg>

<svg width="154" height="105" viewBox="0 0 154 105" fill="none" xmlns="http://www.w3.org/2000/svg">
    <path d="M124.162 39.5318C119.799 16.9515 100.357 0 77 0C58.4558 0 42.35 10.7338 34.3292 26.4418C15.015 28.5362 0 45.2259 0 65.45C0 87.1139 17.2608 104.72 38.5 104.72H121.917C139.627 104.72 154 90.0592 154 71.995C154 54.7162 140.846 40.7099 124.162 39.5318Z" fill="#069E08"/>
    <path d="M71.3548 76.9998L49.2793 55.8347L54.8541 50.5432L71.4103 66.4175L99.2006 40.0398L104.719 45.3312L71.3548 76.9998Z" fill="white"/>
</svg>
